Newaita-dark/apps/32/hitori.svg

<svg height="32pt" viewBox="0 0 32 32" width="32pt" xmlns="http://www.w3.org/2000/svg" xmlns:xlink="http://www.w3.org/1999/xlink"><linearGradient id="a" gradientUnits="userSpaceOnUse" x1="15.875" x2="15.875" y1="27.46875" y2="28.7916875"><stop offset="0" stop-opacity=".275"/><stop offset="1" stop-opacity="0"/></linearGradient><linearGradient id="b"><stop offset="0" stop-opacity=".314"/><stop offset=".222" stop-opacity=".275"/><stop offset="1" stop-opacity="0"/></linearGradient><radialGradient id="c" cx="450.909" cy="189.579" gradientTransform="matrix(0 -.07813 -.14064 0 51.47 63.032)" gradientUnits="userSpaceOnUse" r="21.167" xlink:href="#b"/><radialGradient id="d" cx="450.909" cy="189.579" gradientTransform="matrix(0 .07813 .14064 0 -19.716 -8.091)" gradientUnits="userSpaceOnUse" r="21.167" xlink:href="#b"/><radialGradient id="e" cx="450.909" cy="189.579" gradientTransform="matrix(0 -.07813 .14064 0 -19.716 63.032)" gradientUnits="userSpaceOnUse" r="21.167" xlink:href="#b"/><radialGradient id="f" cx="450.909" cy="189.579" gradientTransform="matrix(0 .07813 -.14064 0 51.47 -8.091)" gradientUnits="userSpaceOnUse" r="21.167" xlink:href="#b"/><linearGradient id="g"><stop offset="0" stop-color="#e0e0e0"/><stop offset="1" stop-color="#eee"/></linearGradient><linearGradient id="h" gradientUnits="userSpaceOnUse" x1="127" x2="127" xlink:href="#g" y1="-31.083" y2="-158.083"/><linearGradient id="i" gradientUnits="userSpaceOnUse" x1="381" x2="381" xlink:href="#g" y1="-31.083" y2="-158.083"/><linearGradient id="j"><stop offset="0" stop-color="#ef5350"/><stop offset="1" stop-color="#e57373"/></linearGradient><linearGradient id="k" gradientUnits="userSpaceOnUse" x1="127" x2="127" xlink:href="#j" y1="222.917" y2="95.917"/><linearGradient id="l" gradientUnits="userSpaceOnUse" x1="127" x2="127" xlink:href="#g" y1="95.917" y2="-31.083"/><linearGradient id="m" gradientUnits="userSpaceOnUse" x1="381" x2="381" xlink:href="#g" y1="222.917" y2="95.917"/><linearGradient id="n" gradientUnits="userSpaceOnUse" x1="381" x2="381" y1="95.917" y2="-31.083"><stop offset="0" stop-color="#81c784"/><stop offset="1" stop-color="#a5d6a7"/></linearGradient><linearGradient id="o" gradientUnits="userSpaceOnUse" x1="254" x2="254" xlink:href="#g" y1="95.917" y2="-31.083"/><linearGradient id="p" gradientUnits="userSpaceOnUse" x1="254" x2="254" xlink:href="#j" y1="222.917" y2="95.917"/><linearGradient id="q" gradientUnits="userSpaceOnUse" x1="254" x2="254" y1="-31.083" y2="-158.083"><stop offset="0" stop-color="#424242"/><stop offset="1" stop-color="#616161"/></linearGradient><path d="m6.613 27.422h18.524v1.422h-18.524zm0 0" fill="url(#a)"/><path d="m25.137 27.469h2.648v-1.32h-2.648zm0 0" fill="url(#c)"/><path d="m6.613 27.469h-2.643v1.324h2.644zm0 0" fill="url(#d)"/><path d="m6.613 27.469h-2.643v-1.32h2.644zm0 0" fill="url(#e)"/><path d="m25.137 27.469h2.648v1.324h-2.648zm0 0" fill="url(#f)"/><g stroke="#212121" stroke-linecap="round" stroke-width="3"><path d="m84.68-158.068h105.802c11.686 0 21.185 9.437 21.185 21.123v105.865c0 11.686-9.499 21.185-21.185 21.185h-105.803c-11.686 0-21.185-9.499-21.185-21.185v-105.865c0-11.686 9.499-21.123 21.185-21.123zm0 0" fill="url(#h)" transform="matrix(.0625 0 0 .0625 0 13.439)"/><path d="m317.47-158.068h105.865c11.686 0 21.185 9.437 21.185 21.123v105.865c0 11.686-9.499 21.185-21.185 21.185h-105.865c-11.687 0-21.123-9.499-21.123-21.185v-105.865c0-11.686 9.436-21.123 21.123-21.123zm0 0" fill="url(#i)" transform="matrix(.0625 0 0 .0625 0 13.439)"/><path d="m84.68 74.722h105.802c11.686 0 21.185 9.5 21.185 21.186v105.865c0 11.686-9.499 21.123-21.185 21.123h-105.803c-11.686 0-21.185-9.437-21.185-21.123v-105.865c0-11.687 9.499-21.186 21.185-21.186zm0 0" fill="url(#k)" transform="matrix(.0625 0 0 .0625 0 13.439)"/><path d="m63.494-31.08h126.988v126.988h-126.988zm0 0" fill="url(#l)" transform="matrix(.0625 0 0 .0625 0 13.439)"/><path d="m317.47 74.722h105.865c11.686 0 21.185 9.5 21.185 21.186v105.865c0 11.686-9.499 21.123-21.185 21.123h-105.865c-11.687 0-21.123-9.437-21.123-21.123v-105.865c0-11.687 9.436-21.186 21.123-21.186zm0 0" fill="url(#m)" transform="matrix(.0625 0 0 .0625 0 13.439)"/><path d="m317.47-31.08h127.05v126.988h-127.05zm0 0" fill="url(#n)" transform="matrix(.0625 0 0 .0625 0 13.439)"/><path d="m190.482-31.08h126.988v126.988h-126.988zm0 0" fill="url(#o)" transform="matrix(.0625 0 0 .0625 0 13.439)"/><path d="m190.482 95.908h126.988v126.988h-126.988zm0 0" fill="url(#p)" transform="matrix(.0625 0 0 .0625 0 13.439)"/><path d="m190.482-158.068h126.988v126.988h-126.988zm0 0" fill="url(#q)" transform="matrix(.0625 0 0 .0625 0 13.439)"/></g><path d="m5.293 3.559a1.32 1.32 0 0 0 -1.324 1.32v.184c0-.735.59-1.325 1.324-1.325h21.168c.734 0 1.324.59 1.324 1.325v-.184c0-.73-.59-1.32-1.324-1.32zm0 0" fill="#fff" fill-opacity=".784"/><path d="m5.293 27.387a1.32 1.32 0 0 1 -1.324-1.325v-.18c0 .735.59 1.325 1.324 1.325h21.168a1.32 1.32 0 0 0 1.324-1.324v.18a1.32 1.32 0 0 1 -1.324 1.324zm0 0" fill-opacity=".235"/><path d="m5.293 3.465c-.785 0-1.418.633-1.418 1.414v21.171c0 .781.633 1.414 1.418 1.414h21.168c.785 0 1.418-.633 1.418-1.414v-21.171c0-.781-.633-1.414-1.418-1.414zm0 .187h21.168c.684 0 1.23.547 1.23 1.227v21.171c0 .68-.546 1.226-1.23 1.226h-21.168c-.684 0-1.23-.547-1.23-1.226v-21.171c0-.68.546-1.227 1.23-1.227zm0 0" fill="#212121"/></svg>

<svg xmlns="http://www.w3.org/2000/svg" width="32pt" height="32pt" viewBox="0 0 32 32"><defs><linearGradient id="a" gradientUnits="userSpaceOnUse" x1="254" y1="233.5" x2="254" y2="254.667" gradientTransform="matrix(.0625 0 0 .0625 0 12.875)"><stop offset="0" stop-opacity=".275"/><stop offset="1" stop-opacity="0"/></linearGradient><radialGradient id="b" gradientUnits="userSpaceOnUse" cx="450.909" cy="189.579" fx="450.909" fy="189.579" r="21.167" gradientTransform="matrix(0 -.07813 -.14064 0 51.47 63.032)"><stop offset="0" stop-opacity=".314"/><stop offset=".222" stop-opacity=".275"/><stop offset="1" stop-opacity="0"/></radialGradient><radialGradient id="c" gradientUnits="userSpaceOnUse" cx="450.909" cy="189.579" fx="450.909" fy="189.579" r="21.167" gradientTransform="matrix(0 .07813 .14064 0 -19.716 -8.091)"><stop offset="0" stop-opacity=".314"/><stop offset=".222" stop-opacity=".275"/><stop offset="1" stop-opacity="0"/></radialGradient><radialGradient id="d" gradientUnits="userSpaceOnUse" cx="450.909" cy="189.579" fx="450.909" fy="189.579" r="21.167" gradientTransform="matrix(0 -.07813 .14064 0 -19.716 63.032)"><stop offset="0" stop-opacity=".314"/><stop offset=".222" stop-opacity=".275"/><stop offset="1" stop-opacity="0"/></radialGradient><radialGradient id="e" gradientUnits="userSpaceOnUse" cx="450.909" cy="189.579" fx="450.909" fy="189.579" r="21.167" gradientTransform="matrix(0 .07813 -.14064 0 51.47 -8.091)"><stop offset="0" stop-opacity=".314"/><stop offset=".222" stop-opacity=".275"/><stop offset="1" stop-opacity="0"/></radialGradient><linearGradient id="f" gradientUnits="userSpaceOnUse" x1="127" y1="-31.083" x2="127" y2="-158.083"><stop offset="0" stop-color="#e0e0e0"/><stop offset="1" stop-color="#eee"/></linearGradient><linearGradient id="g" gradientUnits="userSpaceOnUse" x1="381" y1="-31.083" x2="381" y2="-158.083"><stop offset="0" stop-color="#e0e0e0"/><stop offset="1" stop-color="#eee"/></linearGradient><linearGradient id="h" gradientUnits="userSpaceOnUse" x1="127" y1="222.917" x2="127" y2="95.917"><stop offset="0" stop-color="#ef5350"/><stop offset="1" stop-color="#e57373"/></linearGradient><linearGradient id="i" gradientUnits="userSpaceOnUse" x1="127" y1="95.917" x2="127" y2="-31.083"><stop offset="0" stop-color="#e0e0e0"/><stop offset="1" stop-color="#eee"/></linearGradient><linearGradient id="j" gradientUnits="userSpaceOnUse" x1="381" y1="222.917" x2="381" y2="95.917"><stop offset="0" stop-color="#e0e0e0"/><stop offset="1" stop-color="#eee"/></linearGradient><linearGradient id="k" gradientUnits="userSpaceOnUse" x1="381" y1="95.917" x2="381" y2="-31.083"><stop offset="0" stop-color="#81c784"/><stop offset="1" stop-color="#a5d6a7"/></linearGradient><linearGradient id="l" gradientUnits="userSpaceOnUse" x1="254" y1="95.917" x2="254" y2="-31.083"><stop offset="0" stop-color="#e0e0e0"/><stop offset="1" stop-color="#eee"/></linearGradient><linearGradient id="m" gradientUnits="userSpaceOnUse" x1="254" y1="222.917" x2="254" y2="95.917"><stop offset="0" stop-color="#ef5350"/><stop offset="1" stop-color="#e57373"/></linearGradient><linearGradient id="n" gradientUnits="userSpaceOnUse" x1="254" y1="-31.083" x2="254" y2="-158.083"><stop offset="0" stop-color="#424242"/><stop offset="1" stop-color="#616161"/></linearGradient></defs><path d="M6.613 27.422h18.524v1.422H6.613zm0 0" fill="url(#a)"/><path d="M25.137 27.469h2.648v-1.32h-2.648zm0 0" fill="url(#b)"/><path d="M6.613 27.469H3.97v1.324h2.644zm0 0" fill="url(#c)"/><path d="M6.613 27.469H3.97v-1.32h2.644zm0 0" fill="url(#d)"/><path d="M25.137 27.469h2.648v1.324h-2.648zm0 0" fill="url(#e)"/><path d="M84.68-158.068h105.802c11.686 0 21.185 9.437 21.185 21.123V-31.08c0 11.686-9.499 21.185-21.185 21.185H84.679c-11.686 0-21.185-9.499-21.185-21.185v-105.865c0-11.686 9.499-21.123 21.185-21.123zm0 0" transform="matrix(.0625 0 0 .0625 0 13.439)" fill="url(#f)" stroke-width="3" stroke-linecap="round" stroke="#212121"/><path d="M317.47-158.068h105.865c11.686 0 21.185 9.437 21.185 21.123V-31.08c0 11.686-9.499 21.185-21.185 21.185H317.47c-11.687 0-21.123-9.499-21.123-21.185v-105.865c0-11.686 9.436-21.123 21.123-21.123zm0 0" transform="matrix(.0625 0 0 .0625 0 13.439)" fill="url(#g)" stroke-width="3" stroke-linecap="round" stroke="#212121"/><path d="M84.68 74.722h105.802c11.686 0 21.185 9.5 21.185 21.186v105.865c0 11.686-9.499 21.123-21.185 21.123H84.679c-11.686 0-21.185-9.437-21.185-21.123V95.908c0-11.687 9.499-21.186 21.185-21.186zm0 0" transform="matrix(.0625 0 0 .0625 0 13.439)" fill="url(#h)" stroke-width="3" stroke-linecap="round" stroke="#212121"/><path d="M63.494-31.08h126.988V95.908H63.494zm0 0" transform="matrix(.0625 0 0 .0625 0 13.439)" fill="url(#i)" stroke-width="3" stroke-linecap="round" stroke="#212121"/><path d="M317.47 74.722h105.865c11.686 0 21.185 9.5 21.185 21.186v105.865c0 11.686-9.499 21.123-21.185 21.123H317.47c-11.687 0-21.123-9.437-21.123-21.123V95.908c0-11.687 9.436-21.186 21.123-21.186zm0 0" transform="matrix(.0625 0 0 .0625 0 13.439)" fill="url(#j)" stroke-width="3" stroke-linecap="round" stroke="#212121"/><path d="M317.47-31.08h127.05V95.908H317.47zm0 0" transform="matrix(.0625 0 0 .0625 0 13.439)" fill="url(#k)" stroke-width="3" stroke-linecap="round" stroke="#212121"/><path d="M190.482-31.08H317.47V95.908H190.482zm0 0" transform="matrix(.0625 0 0 .0625 0 13.439)" fill="url(#l)" stroke-width="3" stroke-linecap="round" stroke="#212121"/><path d="M190.482 95.908H317.47v126.988H190.482zm0 0" transform="matrix(.0625 0 0 .0625 0 13.439)" fill="url(#m)" stroke-width="3" stroke-linecap="round" stroke="#212121"/><path d="M190.482-158.068H317.47V-31.08H190.482zm0 0" transform="matrix(.0625 0 0 .0625 0 13.439)" fill="url(#n)" stroke-width="3" stroke-linecap="round" stroke="#212121"/><path d="M5.293 3.559a1.32 1.32 0 0 0-1.324 1.32v.184c0-.735.59-1.325 1.324-1.325h21.168c.734 0 1.324.59 1.324 1.325v-.184c0-.73-.59-1.32-1.324-1.32zm0 0" fill="#fff" fill-opacity=".784"/><path d="M5.293 27.387a1.32 1.32 0 0 1-1.324-1.325v-.18c0 .735.59 1.325 1.324 1.325h21.168a1.32 1.32 0 0 0 1.324-1.324v.18a1.32 1.32 0 0 1-1.324 1.324zm0 0" fill-opacity=".235"/><path d="M5.293 3.465c-.785 0-1.418.633-1.418 1.414V26.05c0 .781.633 1.414 1.418 1.414h21.168c.785 0 1.418-.633 1.418-1.414V4.879c0-.781-.633-1.414-1.418-1.414zm0 .187h21.168c.684 0 1.23.547 1.23 1.227V26.05c0 .68-.546 1.226-1.23 1.226H5.293c-.684 0-1.23-.547-1.23-1.226V4.879c0-.68.546-1.227 1.23-1.227zm0 0" fill="#212121"/></svg>
